X: 2196
T: MISS BAIRD OF SAUGHTON
R: Reel
B: Kerr's v.2 p.22 #196
Z: 2016 John Chambers <jc:trillian.mit.edu>
M: C
L: 1/8
K: F
|:\
cdcf cAAB | cAdB c2(cd) |\
cfag fcAF | GABc d2(df) ::|\
cfAB cAAB |
cfAB c2(cd) |\
[1 cfAB cfAF | GABc d2(df) :|\
[2 afge fcAF | GABc d2d2 |]
